X:303
T:B303- March Boys (Northumberland Bagpipes)
Q:1/4=120
L:1/4
M:C|
K:G
d|BA/G/EE|DDG3/2 A/|BA/G/EE|G/A/ B/G/c2|\
cc/c/BB|AAF3/2 F/|GGEE/G/|(F3/2 E/4F/4)Gd|\
BA/G/EE|DDG3/2 A/|BA/G/EE|G/A/ B/d/ c3/2 c/|\
c/c/ c/c/ BB/B/|AAd/e/ f/d/|gde/d/ c/B/|A/B/ c/d/BG|\
gdgd|g/f/ e/f/g2|GG/G/FF|EEc3/2 c/|\
cc/c/BB/B/|AAd/e/ f/d/|gde/d/ c/B/|A/B/ c/d/BG|]

